X:7
T:Dusty Attic Jam
C:Corwin Zekley
L:1/8
M:4/4
K:D
"D" D4 A2 D2 |"C" G2 A2 =c2"D" A2- | A2 D2 F2 G2 | A2 F2 G2 A2 |$"C" =c4 E2 D2 | E2 G2 =c2"G" B2- | %6
 B2 D2 G2 ^G2 | A2 D2 =F2 ^F2 |$"D" D4 A2 D2 |"C" G2 A2 =c2"D" A2- | A2 D2 F2 G2 | A2 F2 G2 A2 |$ %12
"Am" =c4 E2 D2 | E2 G2 =c2"G" B2- | B2 G2 =c2 d2 |"C" e2 d2 f2 g2 |$"D" a4 f2"C/A" g2- | %17
 g2 e2"D/B" f4 |"C" e2 d2 =c2 A2 |"D" d4 d4 |$"Am" =c2 e2 B2 e2 | A2 e2 G2"C" E2- | E2 G2 =c2 d2 | %23
 e2 d2 f2 g2 |$"D" a4 f2"C/A" g2- | g2 e2"D/B" f4 |"C" e2 d2 =c2 A2 |"D" d4 d4 |$"C/A" =c4 E2 D2 | %29
 E2 G2 =c2"G" B2- | B2 D2 G2 ^G2 | A2 D2 =F2 ^F2 ||"D""^Last Time Only" D2 x6 |] %33

